!!!OTL: O UELI MYN UELI
!!!ARE: Europa, Mitteleuropa, Schweiz
!!!SCT: E0592
!!!YEM: Copyright 1995, estate of Helmut Schaffrath.
**kern
*ICvox
*Ivox
*M3/4
*k[b-e-]
*B-:
{4f
=1
4.b-
8dd
8cc
8b-
=2
4a
4f}
{4b-
=3
4dd
8b-
8dd
8ff
8dd
=4
2cc}
{4f
=5
4.b-
8dd
8cc
8b-
=6
4a
4f}
{4b-
=7
4dd
8b-
8dd
8ff
8dd
=8
2cc}
{8dd
8ee-
=9
4ff
4dd
8ff
8dd
=10
4ee-
4cc}
{8dd
8ee-
=11
4ff
4dd
8ff
8dd
=12
4ee-
4cc}
{8ee-
8gg
=13
4.ff
8dd
8ee-
8cc
=14
2b-}
==
!!!AGN: Liebes - Lied, Kilt - Lied
!!!ONB: ESAC (Essen Associative Code) Database: ERK1
!!!AMT: simple triple
!!!AIN: vox
!!!EED: Helmut Schaffrath
!!!EEV: 1.0
*-
